images/init6.svg

<svg width="40" height="40" viewBox="0 0 40 40" fill="none" xmlns="http://www.w3.org/2000/svg">
<circle cx="20" cy="20" r="20" fill="#F0F5FF"/>
<path d="M30.005 16.3099C29.792 16.0406 29.5207 15.8231 29.2115 15.6737C28.9024 15.5243 28.5634 15.4469 28.22 15.4474H27.7992L28.025 14.1732C28.0427 14.0759 28.0409 13.9762 28.0197 13.8797C27.9986 13.7831 27.9585 13.6918 27.9018 13.6109C27.845 13.5299 27.7728 13.4611 27.6893 13.4083C27.6058 13.3555 27.5127 13.3197 27.4152 13.3032L21.794 12.3214C21.6971 12.3043 21.5978 12.3064 21.5018 12.3276C21.4057 12.3489 21.3148 12.3888 21.2342 12.4453C21.1536 12.5017 21.0849 12.5735 21.0321 12.6564C20.9792 12.7394 20.9433 12.832 20.9263 12.9289L20.477 15.4474H19.7127L20.1875 12.7999C20.2207 12.606 20.292 12.4206 20.3973 12.2544C20.5025 12.0882 20.6396 11.9445 20.8007 11.8315C20.9617 11.7186 21.1436 11.6386 21.3357 11.5963C21.5278 11.554 21.7264 11.5501 21.92 11.5849L24.9125 12.1099L24.56 10.1224C24.5431 10.0252 24.5071 9.93239 24.4541 9.84918C24.4012 9.76598 24.3323 9.69407 24.2514 9.6376C24.1706 9.58114 24.0793 9.54123 23.983 9.52017C23.8866 9.49911 23.787 9.49733 23.69 9.51491L16.16 10.8274C15.9575 10.8649 15.785 10.9699 15.6725 11.1349C15.56 11.2999 15.515 11.5024 15.545 11.6974L16.2013 15.4474H14.705L14.06 12.6499C13.985 12.3124 13.685 12.0724 13.3325 12.0724H10.25C9.8375 12.0724 9.5 12.4099 9.5 12.8224C9.5 13.2349 9.8375 13.5724 10.25 13.5724H12.7325L15.0875 23.7724C15.2022 24.2761 15.4856 24.7255 15.8908 25.0461C16.2959 25.3666 16.7984 25.5391 17.315 25.5349H26.9375C28.01 25.5349 28.925 24.8149 29.165 23.7724L30.44 18.2299C30.5975 17.5549 30.44 16.8499 30.005 16.3099ZM25.6025 22.6549H18.8675C18.455 22.6549 18.1175 22.3174 18.1175 21.9049C18.1175 21.4849 18.455 21.1549 18.8675 21.1549H25.6025C26.0225 21.1549 26.3525 21.4849 26.3525 21.9049C26.3525 22.3174 26.0225 22.6549 25.6025 22.6549ZM27.29 19.6099H17.18C16.7675 19.6099 16.43 19.2724 16.43 18.8599C16.43 18.4399 16.7675 18.1099 17.18 18.1099H27.29C27.7025 18.1099 28.04 18.4399 28.04 18.8599C28.04 19.2724 27.7025 19.6099 27.29 19.6099ZM17.6337 26.7154C17.1315 26.7154 16.6498 26.9145 16.2941 27.2691C15.9385 27.6236 15.7378 28.1047 15.7362 28.6069C15.7362 29.6509 16.5875 30.4992 17.6337 30.4992C18.68 30.4992 19.5312 29.6502 19.5312 28.6069C19.5297 28.1047 19.329 27.6236 18.9734 27.2691C18.6177 26.9145 18.136 26.7154 17.6337 26.7154ZM26.6173 26.7154C26.115 26.7152 25.6331 26.9142 25.2774 27.2688C24.9217 27.6234 24.7211 28.1046 24.7197 28.6069C24.7197 29.6509 25.571 30.4992 26.6173 30.4992C27.6635 30.4992 28.5148 29.6502 28.5148 28.6069C28.5136 28.1046 28.3131 27.6233 27.9573 27.2686C27.6015 26.914 27.1196 26.715 26.6173 26.7154Z" fill="#BDD0EA"/>
</svg>

<svg width="40" height="40" fill="none" xmlns="http://www.w3.org/2000/svg"><circle cx="20" cy="20" r="20" fill="#F0F5FF"/><path d="M30.005 16.31a2.272 2.272 0 00-1.785-.863h-.42l.225-1.274a.746.746 0 00-.61-.87l-5.621-.982a.75.75 0 00-.868.608l-.449 2.518h-.764l.474-2.647a1.489 1.489 0 011.733-1.215l2.992.525-.352-1.988a.747.747 0 00-.87-.607l-7.53 1.312a.74.74 0 00-.488.308.789.789 0 00-.127.562l.656 3.75h-1.496l-.645-2.797a.74.74 0 00-.728-.578H10.25a.752.752 0 00-.75.75c0 .413.338.75.75.75h2.482l2.356 10.2a2.266 2.266 0 002.227 1.763h9.622c1.073 0 1.988-.72 2.228-1.763l1.275-5.542a2.24 2.24 0 00-.435-1.92zm-4.402 6.345h-6.736a.752.752 0 01-.75-.75c0-.42.338-.75.75-.75h6.735c.42 0 .75.33.75.75 0 .412-.33.75-.75.75zm1.687-3.045H17.18a.752.752 0 01-.75-.75c0-.42.337-.75.75-.75h10.11c.413 0 .75.33.75.75 0 .412-.337.75-.75.75zm-9.656 7.105a1.897 1.897 0 00-1.898 1.892 1.897 1.897 0 003.795 0 1.897 1.897 0 00-1.897-1.892zm8.983 0a1.897 1.897 0 00-1.897 1.892 1.897 1.897 0 003.795 0 1.896 1.896 0 00-1.898-1.892z" fill="#BDD0EA"/></svg>
